X: 180
T:Turks March. JC.179
M:2/4
L:1/8
Q:180
S:John Clare,Poet,Helpstone (1793-1864)
R:March
O:England
A:Northamptonshire
N:No TS in the MS.
N:No TS given: 2/4 adde
Z:vmp.P. Headford
K:G
"should probably be in Key D"a>gff|f>edd|edec|d/e/f/e/ d/e/f/g/|!
a>gff|f>edd|{f}e>dec|d2"Fine"z2:|!
|:e2f2|gg/f/ ee|f2g2|aa/g/ fa|!
aggf|aggf|ab/a/ gf|f>e"D.C."e2|]
